X:1
T:Ton cueur s'est bientost
T:Claudin de Sermisy
T:Source : Livre XXV de 28 chansons nouvelles à 4 parties---Paris---P.Attaingnant---1547. Editor : André Vierendeels (26/07/18) Notes : Original clefs : C1, C3, C3, F3 Original note values have been halved Editorial accidentals above the staff m5  T2 : whole rest notated as half rest in original print
T:Ton cueur s'est bientost
T:©
T:©
T:©
T:©
T:©
C:Claudin de Sermisy
Z:©
%%score [ 1 [ 2 3 ] 4 ]
L:1/8
Q:1/4=120
M:2/2
K:F
V:1 treble nm="Soprano" snm="S"
V:2 treble-8 nm="Tenor 1" snm="T 1"
V:3 treble-8 nm="Tenor 2" snm="T 2"
V:4 bass nm="Bass" snm="B"
V:1
 C4 F2 G2 | A2 A2 G3 A | Bc d4 c2- | c2 B2 c4 | z4 z2 G2 | A2 A2 F2 A2 | B4 A2 G2- | G2 F4 E2 | %8
w: Ton cueur s'est|bien- tost re- *||* pen- ty,|et|d'a- vecq le mien|dep- par- *||
 F2 c2 d2 c2 | A2 A2 A2 G2 | A4 z2 c2 | d2 f2 edcB | c2 d3 c c2- | c2 B2 cBAG | A4 G4 | z8 | %16
w: ty, sans luy a-|voir en rien mef-|faict, sans|luy a- voir _ _ _|_ en _ rien|_ mef- * * * *|* faict,||
 z2 A2 A2 A2 | G2 E2 F2 G2 | C2 C2 F2 G2 | A2 A2 G3 A | Bc d3 c c2- | c2 B2 c4 | z4 z2 G2 | %23
w: mais puis- que|iay con- gneu ton|faict, ail- leurs m'en|vois cher- cher _|_ _ _ _ _|* par- ty,|ail-|
 A2 A2 F2 A2 | B4 A2 G2- | G2 F4 E2 | F4 z2 A2 | B2 B2 A2 G2- | GF F4 E2 | F8 |] %30
w: leurs m'en vois cher-|cher par- *||ty, ail-|leurs m'en vois cher-|* * cher par-|ty.|
V:2
 z8 | z8 | z8 | z4 F4 | B2 c2 d2 e2 | c2 c2 d2 f2 | f2 f2 f2 d2 | _edcB c2 c2 | A8 | z8 | %10
w: |||Ton|cueur s'est bien- tost|re- pen- ty, et|d'a- vecq le mien|de- * * * * par-|ty,||
 z2 f4 g2 | f2 d2 gfed | c2 B2 A4 | G4 z4 | z2 c2 c2 c2 | B2 G2 A2 A2 | FGAB c4 | z8 | %18
w: sans luy|a- voir en- * * *|* rien mef-|faict,|mais puis- que|iay con- gneu ton|faict, _ _ _ _||
 z2 A2 A2 B2 | c2 c2 d2 e2 | f4 z4 | z4 z2 F2 | B2 c2 d2 e2 | c2 c2 d2 f2 | f2 f2 f2 d2 | %25
w: ail- leurs men|vois cher- cher par-|ty,|ail-|leurs m'en vois cher-|cher par- ty, ail-|leurs m'en vois cher-|
 _edcB c2 c2 | A4 z2 f2 | f2 f2 f2 d2 | _edcB c2 c2 | A8 |] %30
w: cher _ _ _ _ par-|ty, ail-|leurs m'en vois cher-|cher _ _ _ _ par-|ty.|
V:3
 z8 | F4 B2 c2 | d2 B2 cdef | d2 d2 c4 | z8 | z2 F2 B2 c2 | d2 d2 c2 B2- | B2 A2 G4 | F4 z2 c2 | %9
w: |Ton cueur s'est|bien- tost re- * * *|* pen- ty,||et d'a- vecq|le mien dep- par-||ty, sans|
 d2 c2 A2 B2 | c2 d3 c c2- | c2 B2 c3 d | e2 f3 e c2 | d4 c4- | c4 z4 | z4 z2 c2 | c2 c2 A2 F2 | %17
w: luy a- voir en|rien mef- * *|||* faict,|_|mais|puis- que iay con-|
 c4 B4 | A4 z4 | z2 F2 B2 c2 | d2 B2 cdef | d2 d2 c4 | z8 | z2 F2 B2 c2 | d2 d2 c2 B2- | B2 A2 G4 | %26
w: gneu ton|faict,|ail- leurs m'en|vois cher- cher _ _ _|_ par- ty,||ail- leurs m'en|vois cher- cher par-||
 F2 F2 B2 c2 | d2 d2 c2 B2- | B2 A2 G4 | F8 |] %30
w: ty, ail- leurs m'en|vois cher- cher par-||ty.|
V:4
 z8 | z8 | z4 C,4 | F,2 G,2 A,2 A,2 | G,2 F,4 E,2 | F,4 z2 F,2 | B,,2 B,,2 F,2 G,2 | _E,2 F,2 C,4 | %8
w: ||Ton|cueur s'est bien- tost|re- * pen-|ty, et|d'a- vecq le mien|dep- * par-|
 F,8 | z2 F,4 G,2 | F,2 D,2 F,2 E,2 | D,4 C,4 | z8 | z4 z2 F,2 | F,2 F,2 E,2 C,2 | D,2 E,2 F,4 | %16
w: ty,|sans luy|a- voir en rien|mef- faict,||mais|puis- que iay con-|gneu ton faict,|
 z8 | z2 C,2 D,2 E,2 | F,2 F,2 D,2 G,2 | F,4 z4 | z4 z2 C,2 | F,2 G,2 A,2 A,2 | G,2 F,4 E,2 | %23
w: |ail- leurs m'en|vois cher- cher paty,|_|ail-|leurs m'en vois cher-|cher par- *|
 F,4 z2 F,2 | B,,2 B,,2 F,2 G,2 | _E,2 F,2 C,4 | F,4 z2 F,2 | B,,2 B,,2 F,2 G,2 | _E,2 F,2 C,4 | %29
w: ty, ail-|leurs m'en vois cher-|cher par- *|ty, ail-|leurs m'en vois cher-|cher par- *|
 F,8 |] %30
w: ty.|

